X:23
T:Trip to Epping. JJo.023, A
B:J.Johnson Choice Collection Vol 8 1758
Z:vmp.Simon Wilson 2013 www.village-music-project.org.uk
Z:Dance added by John Chambers 2017
M:6/8
L:1/8
%Q:3/8=120
K:Bb
F |\
B3  B2c | dfd  B2F | c3     c2d | ege c2B |\
Acf afc | d2f =egb | agf {a}Tg3 | f3  F2 :|
|: f |\
fg_a gfe | dc=B c3  | efg    fed | cBA B2F |\
BFB  cFc | Td3  efg | fed {d}Tc3 | B3 B,3 :|
%%begintext align
%% Cast off and cross over .|. Lead up
%% to the top cross over :||. hands 4
%% at Bottom :||. Right and Left
%% at top :||:
%%endtext
